gama.ui.shared/icons_svg/light/views/perspective.modeling.svg

<svg height="24.75" viewBox="-417.103 -3023.632 24.78 24.75" width="24.78" xmlns="http://www.w3.org/2000/svg"><g fill="none"><path d="m-399.9275-3023.257h-13.6c-1.7673 0-3.2 1.4328-3.2 3.2v13.6c0 1.7674 1.4327 3.2 3.2 3.2h13.6c1.7673 0 3.2-1.4326 3.2-3.2v-13.6c0-1.7672-1.4327-3.2-3.2-3.2z" fill="#8797a7"/><path d="m-395.897-3019.257h-13.6c-1.76733 0-3.2 1.4328-3.2 3.2v13.6c0 1.7674 1.43267 3.2 3.2 3.2h13.6c1.7673 0 3.2-1.4326 3.2-3.2v-13.6c0-1.7672-1.4327-3.2-3.2-3.2z" fill="#66727e"/><path d="m-400.367-3013.1712-7.6667 7.6667v1.5265h1.5267l7.66665-7.6665zm.4733-.4733 1.5267 1.5265.86-.86-1.5267-1.5265zm-8.80665 10v-2c0-.0867.03335-.1735.1-.2335l9.33335-9.3332c.1333-.1333.34-.1333.4733 0l2 2c.13335.1332.13335.34 0 .4732l-9.34 9.3268c-.06.06-.14665.1-.2333.1h-2c-.1867 0-.33335-.1468-.33335-.3333z" fill="#fff"/></g></svg>

<?xml version="1.0" encoding="UTF-8" standalone="no"?>
<!DOCTYPE svg PUBLIC "-//W3C//DTD SVG 1.1//EN" "http://www.w3.org/Graphics/SVG/1.1/DTD/svg11.dtd">
<svg xmlns:dc="http://purl.org/dc/elements/1.1/" xmlns="http://www.w3.org/2000/svg" version="1.1" xmlns:xl="http://www.w3.org/1999/xlink" viewBox="-417.1025 -3023.632 24.780484 24.75" width="24.780484" height="24.75">
  <defs/>
  <g id="SOURCES" stroke="none" fill-opacity="1" stroke-opacity="1" fill="none" stroke-dasharray="none">
    <title>SOURCES</title>
    <g id="SOURCES_Light">
      <title>Light</title>
      <g id="Group_12669">
        <g id="Graphic_12667">
          <path d="M -399.9275 -3023.257 L -413.5275 -3023.257 C -415.2948 -3023.257 -416.7275 -3021.8242 -416.7275 -3020.057 L -416.7275 -3006.457 C -416.7275 -3004.6896 -415.2948 -3003.257 -413.5275 -3003.257 L -399.9275 -3003.257 C -398.1602 -3003.257 -396.7275 -3004.6896 -396.7275 -3006.457 L -396.7275 -3020.057 C -396.7275 -3021.8242 -398.1602 -3023.257 -399.9275 -3023.257 Z" fill="#8797a7"/>
        </g>
        <g id="Graphic_12666">
          <path d="M -395.897 -3019.257 L -409.497 -3019.257 C -411.26433 -3019.257 -412.697 -3017.8242 -412.697 -3016.057 L -412.697 -3002.457 C -412.697 -3000.6896 -411.26433 -2999.257 -409.497 -2999.257 L -395.897 -2999.257 C -394.1297 -2999.257 -392.697 -3000.6896 -392.697 -3002.457 L -392.697 -3016.057 C -392.697 -3017.8242 -394.1297 -3019.257 -395.897 -3019.257 Z" fill="#66727e"/>
        </g>
        <g id="Graphic_12668">
          <path d="M -400.367 -3013.1712 L -408.0337 -3005.5045 L -408.0337 -3003.978 L -406.507 -3003.978 L -398.84035 -3011.6445 Z M -399.8937 -3013.6445 L -398.367 -3012.118 L -397.507 -3012.978 L -399.0337 -3014.5045 Z M -408.70035 -3003.6445 L -408.70035 -3005.6445 C -408.70035 -3005.7312 -408.667 -3005.818 -408.60035 -3005.878 L -399.267 -3015.2112 C -399.1337 -3015.3445 -398.927 -3015.3445 -398.7937 -3015.2112 L -396.7937 -3013.2112 C -396.66035 -3013.078 -396.66035 -3012.8712 -396.7937 -3012.738 L -406.1337 -3003.4112 C -406.1937 -3003.3512 -406.28035 -3003.3112 -406.367 -3003.3112 L -408.367 -3003.3112 C -408.5537 -3003.3112 -408.70035 -3003.458 -408.70035 -3003.6445 Z" fill="white"/>
        </g>
      </g>
    </g>
  </g>
</svg>
